X: 186
T:Conserva me domine
N: Derived from Jos1510-Conserva_me_domine.krn
C: Josquin des Prez
%%abc-version 2.0
%%abcx-abcm2ps-target-version 5.9.1 (29 Sep 2008)
%%abc-creator hum2abc beta
%%abcx-conversion-date 2019/02/12 16:15:47
%%abc-edited-by Jesse Rodin
%%abc-edited-by Chris Gage 05/30/2012
%%abcx-initial-encoding-date 2012/05/31/
%%humdrum-veritas 2314378773
%%humdrum-veritas-data 4221647417
%%linebreak <none>
%%barnumbers 0
L: 1/4
M: 2/1
Q: 1/2=120
%%staves [1 2 3 4]
V: 1 clef=treble
V: 2 clef=treble-8
V: 3 clef=treble-8
V: 4 clef=bass
K: C
[V:1] z8 | 
[V:2] f8 | 
[V:3] z8 | 
[V:4] z8 | 
[V:1] z8 | 
[V:2] f4d4 | 
[V:3] z8 | 
[V:4] z8 | 
[V:1] z8 | 
[V:2] c4z2A2- | 
[V:3] z8 | 
[V:4] F,8 | 
[V:1] z8 | 
[V:2] ABc4B2 | 
[V:3] z8 | 
[V:4] F,4D,4 | 
[V:1] c8 | 
[V:2] c8 | 
[V:3] z8 | 
[V:4] C,4F,4- | 
[V:1] c4A4 | 
[V:2] z8 | 
[V:3] z8 | 
[V:4] F,2F,2F,4 | 
[V:1] G4z2E2- | 
[V:2] z2c2c2A2 | 
[V:3] c8 | 
[V:4] z2C,4C,2 | 
[V:1] EFG4F2 | 
[V:2] G4z4 | 
[V:3] c4A4 | 
[V:4] C,2C,2D,4 | 
[V:1] G8 | 
[V:2] z2E4E2 | 
[V:3] G4c4- | 
[V:4] E,4C,4 | 
[V:1] z8 | 
[V:2] E2E2F4 | 
[V:3] c2c2c4 | 
[V:4] A,,8 | 
[V:1] z2G4G2 | 
[V:2] E4z2c2- | 
[V:3] z8 | 
[V:4] z4C,3C, | 
[V:1] G2G2A4 | 
[V:2] c2c2c2c2 | 
[V:3] E3EE2E2 | 
[V:4] C,2C,2A,,4 | 
[V:1] B4G3F | 
[V:2] d4e3d | 
[V:3] G4E4 | 
[V:4] G,,4z2G,2 | 
[V:1] E2A4^G2 | 
[V:2] cBA2B4 | 
[V:3] z8 | 
[V:4] A,2F,2E,4 | 
[V:1] A8- | 
[V:2] A8 | 
[V:3] z2c4c2 | 
[V:4] A,,4z2F,2- | 
[V:1] A8 | 
[V:2] z4z4 | 
[V:3] c2c2d4 | 
[V:4] F,2F,2F,2F,2 | 
[V:1] z8 | 
[V:2] z8 | 
[V:3] e4c3B | 
[V:4] G,4A,3G, | 
[V:1] z8 | 
[V:2] z8 | 
[V:3] A2d4^c2 | 
[V:4] F,E,D,2E,4 | 
[V:1] z2A4A2 | 
[V:2] z2f4f2 | 
[V:3] d8 | 
[V:4] D,8 | 
[V:1] A2A2B4 | 
[V:2] f2f2g4 | 
[V:3] z8 | 
[V:4] z8 | 
[V:1] A2d4^c2 | 
[V:2] f2d2e4 | 
[V:3] z8 | 
[V:4] z8 | 
[V:1] d8 | 
[V:2] d8 | 
[V:3] z4z2A2- | 
[V:4] z2D,4D,2 | 
[V:1] z8 | 
[V:2] z8 | 
[V:3] A2A2c2c2 | 
[V:4] F,2F,2F,4 | 
[V:1] z8 | 
[V:2] z8 | 
[V:3] c4z2c2 | 
[V:4] z2F,2F,2F,2 | 
[V:1] z8 | 
[V:2] z4z2d2 | 
[V:3] c2c2B2B2 | 
[V:4] E,2E,2D,4- | 
[V:1] z2A4A2 | 
[V:2] d4f2f2 | 
[V:3] A8 | 
[V:4] D,4z4 | 
[V:1] c2c2c4 | 
[V:2] f4z2f2 | 
[V:3] z8 | 
[V:4] z8 | 
[V:1] z2c2c2c2 | 
[V:2] f2f2e4 | 
[V:3] z8 | 
[V:4] z8 | 
[V:1] B2G2A4 | 
[V:2] d2g4^f2 | 
[V:3] z8 | 
[V:4] z8 | 
[V:1] G8 | 
[V:2] g8 | 
[V:3] z4B3B | 
[V:4] E,3E,E,2E,2 | 
[V:1] z8 | 
[V:2] z8 | 
[V:3] B2B2d4 | 
[V:4] G,4F,2D,2 | 
[V:1] z8 | 
[V:2] z4e3e | 
[V:3] c2A2c4 | 
[V:4] F,4E,4 | 
[V:1] B3BB4 | 
[V:2] e2e2g4 | 
[V:3] B8 | 
[V:4] z8 | 
[V:1] d4c2A2 | 
[V:2] f2d2f4 | 
[V:3] z8 | 
[V:4] z8 | 
[V:1] c4B2G2- | 
[V:2] e8 | 
[V:3] z2G3ABc | 
[V:4] C,3D,E,F,G,2- | 
[V:1] GABcd2A2- | 
[V:2] z8 | 
[V:3] d4A3B | 
[V:4] G,2D,3E,F,G, | 
[V:1] ABcde4 | 
[V:2] A3Bcde2 | 
[V:3] cde4E2- | 
[V:4] A,2A,,3B,,C,D, | 
[V:1] z2E3FGA | 
[V:2] E3FGAB2- | 
[V:3] EFGAB2G2- | 
[V:4] E,8- | 
[V:1] B2A4^G2 | 
[V:2] B2e6 | 
[V:3] G2A2B4 | 
[V:4] E,8 | 
[V:1] A8- | 
[V:2] c3de2f2 | 
[V:3] A8 | 
[V:4] A,,4z4 | 
[V:1] A8 | 
[V:2] e4z4 | 
[V:3] z4E4 | 
[V:4] A,,4C,2C,2 | 
[V:1] z4A4 | 
[V:2] d4f2f2 | 
[V:3] G2G2D4 | 
[V:4] G,,4z4 | 
[V:1] c2c2G2G2 | 
[V:2] e4edcB | 
[V:3] z2E2E2E2 | 
[V:4] C,4C,4- | 
[V:1] A2B2c4 | 
[V:2] A2G4^F2 | 
[V:3] F2E4C2 | 
[V:4] C,2B,,2A,,4 | 
[V:1] B8 | 
[V:2] G4z2G2 | 
[V:3] D8 | 
[V:4] G,,8 | 
[V:1] z2G2G2G2 | 
[V:2] G2G2c4 | 
[V:3] z4z2G2 | 
[V:4] z2C,2C,2C,2 | 
[V:1] B4A4 | 
[V:2] d8 | 
[V:3] G2G2d4 | 
[V:4] G,4F,4 | 
[V:1] z2A4A2 | 
[V:2] z2f4f2 | 
[V:3] c4z2c2- | 
[V:4] z2F,4F,2 | 
[V:1] A2A2A2A2 | 
[V:2] f2f2f2f2 | 
[V:3] c2c2c2c2 | 
[V:4] F,2F,2F,2F,2 | 
[V:1] A4G4 | 
[V:2] f4e2g2- | 
[V:3] c2c2c4 | 
[V:4] F,4C,4 | 
[V:1] d3cB2A2- | 
[V:2] gfd4f2- | 
[V:3] G4d4 | 
[V:4] z2G,3F,D,2 | 
[V:1] A2G4^F2 | 
[V:2] f2e2d4 | 
[V:3] c2B2A4 | 
[V:4] F,2G,2D,4 | 
[V:1] G8 | 
[V:2] d4z4 | 
[V:3] G8- | 
[V:4] G,,8 | 
[V:1] [M:3/1]z12 | 
[V:2] [M:3/1]d4d4d4 | 
[V:3] [M:3/1]G12 | 
[V:4] [M:3/1]z12 | 
[V:1] A4A4A4 | 
[V:2] f8f4 | 
[V:3] z12 | 
[V:4] D,4D,4D,4 | 
[V:1] A8A4 | 
[V:2] c8z4 | 
[V:3] A4A4A4 | 
[V:4] F,8F,4 | 
[V:1] G8z4 | 
[V:2] e4e4e4 | 
[V:3] c8c4 | 
[V:4] C,8z4 | 
[V:1] B4B4B4 | 
[V:2] g6f2e4 | 
[V:3] G8z4 | 
[V:4] E,4E,4E,4 | 
[V:1] G8G4 | 
[V:2] d8z4 | 
[V:3] B4B4B4 | 
[V:4] G,8G,4 | 
[V:1] A4B6A2 | 
[V:2] d6B2c4 | 
[V:3] d8c4 | 
[V:4] D,2E,2F,2G,2A,4 | 
[V:1] A8^G4 | 
[V:2] d4e8 | 
[V:3] A4B8 | 
[V:4] F,4E,8 | 
[V:1] [M:2/1]A4z2E2- | 
[V:2] [M:2/1]e2e3dcB | 
[V:3] [M:2/1]A8 | 
[V:4] [M:2/1]A,,8- | 
[V:1] E2E2E2E2 | 
[V:2] c8 | 
[V:3] z2E4E2 | 
[V:4] A,,8 | 
[V:1] G3FEDE2- | 
[V:2] z4c3B | 
[V:3] E2E2G4 | 
[V:4] z2C,2C,2C,2 | 
[V:1] EDD4^C2 | 
[V:2] A2G2A4 | 
[V:3] F2D2E4 | 
[V:4] D,2B,,2A,,4 | 
[V:1] D8 | 
[V:2] A4z2d2 | 
[V:3] D8 | 
[V:4] z2D,2D,2D,2 | 
[V:1] z4z2d2 | 
[V:2] d2d2B4 | 
[V:3] z2d2d2d2 | 
[V:4] B,,4G,,4 | 
[V:1] d2d2B4 | 
[V:2] G4z2G2- | 
[V:3] B4G4 | 
[V:4] z2G,,4G,,2 | 
[V:1] G4z2G2- | 
[V:2] G2G2c2c2 | 
[V:3] z2G4G2 | 
[V:4] C,2C,2C,2C,2 | 
[V:1] G2G2c2c2 | 
[V:2] c2c2c4 | 
[V:3] c2c2c2c2 | 
[V:4] C,4A,,4- | 
[V:1] c2c2c4 | 
[V:2] A4z2c2 | 
[V:3] c4A4 | 
[V:4] A,,4z4 | 
[V:1] A4z2c2 | 
[V:2] c3BAGA2 | 
[V:3] z2c2c3B | 
[V:4] A,,8 | 
[V:1] c3BAGA2- | 
[V:2] A4D2d2- | 
[V:3] AGA4D2 | 
[V:4] A,,4D,4- | 
[V:1] A2G4^F2 | 
[V:2] d2d2d4 | 
[V:3] F2G2A4 | 
[V:4] D,4D,4 | 
[V:1] G4z2G2- | 
[V:2] z2d4d2 | 
[V:3] G8 | 
[V:4] G,,4G,,4 | 
[V:1] G2G2A2G2 | 
[V:2] e2e2e4 | 
[V:3] z4z2G2- | 
[V:4] C,4C,2C,2 | 
[V:1] E8 | 
[V:2] z2c4c2 | 
[V:3] G2G2A2G2 | 
[V:4] C,4z2C,2- | 
[V:1] z2E4E2 | 
[V:2] c2c2G4 | 
[V:3] E4C2C2 | 
[V:4] C,2C,2C,2C,2 | 
[V:1] B2B2B4 | 
[V:2] z2G4G2 | 
[V:3] D8 | 
[V:4] G,,8 | 
[V:1] A4z2A2 | 
[V:2] d2d2d4 | 
[V:3] z2D4D2 | 
[V:4] z8 | 
[V:1] c2c2c2c2 | 
[V:2] c4z2c2- | 
[V:3] A2A2A4 | 
[V:4] z2A,,4A,,2 | 
[V:1] B4z4 | 
[V:2] cdefg4 | 
[V:3] G4z2c2 | 
[V:4] E,2E,2E,4 | 
[V:1] z8 | 
[V:2] d2g4^f2 | 
[V:3] B2AGA4 | 
[V:4] D,8 | 
[V:1] z2E2E2E2 | 
[V:2] g4z2c2 | 
[V:3] G4z2G2 | 
[V:4] z2C,2C,2C,2 | 
[V:1] E4A2G2- | 
[V:2] c2c2d2e2- | 
[V:3] G2G2A2B2- | 
[V:4] C,4F,2E,2- | 
[V:1] GFEDD4 | 
[V:2] e2E4D2 | 
[V:3] B2A4G2 | 
[V:4] E,D,C,4B,,2 | 
[V:1] C8 ||  
[V:2] E8 ||  
[V:3] A8 ||  
[V:4] A,,8 ||  
[V:1]  [K:C] [M:2/1]c6c2 | 
[V:2]  [K:C] [M:2/1]z4f4- | 
[V:3]  [K:C] [M:2/1]z8 | 
[V:4]  [K:C] [M:2/1]z8 | 
[V:1] c4c4 | 
[V:2] f2f2f4 | 
[V:3] z8 | 
[V:4] z8 | 
[V:1] z2c2c2c2 | 
[V:2] f4z2f2 | 
[V:3] z8 | 
[V:4] z8 | 
[V:1] d4B4 | 
[V:2] f2f2g4 | 
[V:3] z8 | 
[V:4] z8 | 
[V:1] G2c4B2 | 
[V:2] e2c2d4 | 
[V:3] z8 | 
[V:4] z8 | 
[V:1] c8 | 
[V:2] c8 | 
[V:3] c6c2 | 
[V:4] z4F,4- | 
[V:1] z8 | 
[V:2] z8 | 
[V:3] c4c4 | 
[V:4] F,2F,2F,4 | 
[V:1] A4A4 | 
[V:2] z4F4 | 
[V:3] z2c2c2c2 | 
[V:4] F,4z2F,2 | 
[V:1] A4G4 | 
[V:2] D2D2E3D | 
[V:3] d4B4 | 
[V:4] F,2F,2G,4 | 
[V:1] G2E2F4 | 
[V:2] EFG4F2 | 
[V:3] G2c4B2 | 
[V:4] E,2C,2D,4 | 
[V:1] E8 | 
[V:2] G4z2G2 | 
[V:3] c8- | 
[V:4] C,4z2C,2 | 
[V:1] z2G2c2B2 | 
[V:2] A2G2A2G2 | 
[V:3] c4z2G2 | 
[V:4] F,2E,2F,2G,2 | 
[V:1] c2d2G2B2- | 
[V:2] G4z2G2 | 
[V:3] c2B2c2d2 | 
[V:4] C,2z2C,2G,2- | 
[V:1] BAG4^F2 | 
[V:2] B2c2d3c | 
[V:3] G4A4 | 
[V:4] G,F,E,2D,4 | 
[V:1] G8 | 
[V:2] d2B4e2- | 
[V:3] G8 | 
[V:4] G,,4z4 | 
[V:1] c4c4 | 
[V:2] edcBA4 | 
[V:3] z4E4 | 
[V:4] A,,4A,,4 | 
[V:1] z2c4c2 | 
[V:2] G2A3Bcd | 
[V:3] E4z2E2- | 
[V:4] z2A,,4A,,2 | 
[V:1] c2c2G4 | 
[V:2] e8- | 
[V:3] E2E2G2G2 | 
[V:4] C,2C,2C,4 | 
[V:1] z2G2A2B2 | 
[V:2] e4e3d | 
[V:3] G4z2G2 | 
[V:4] z2E,2A,,2E,2 | 
[V:1] c2G2A2B2- | 
[V:2] c2B2A2G2 | 
[V:3] A2B2c2G2 | 
[V:4] A,,2E,2z4 | 
[V:1] BAA4^G2 | 
[V:2] z8 | 
[V:3] A2c2B4 | 
[V:4] z2C,2D,2E,2 | 
[V:1] A4z2A2 | 
[V:2] z2e3dd2- | 
[V:3] A4z4 | 
[V:4] F,2C,2D,2F,2 | 
[V:1] G4F2F2 | 
[V:2] d2^c2d4 | 
[V:3] z4z2A2 | 
[V:4] E,4D,4 | 
[V:1] E4D4 | 
[V:2] B2c2A3B | 
[V:3] G4F2F2 | 
[V:4] z4z2D,2 | 
[V:1] z4z2d2 | 
[V:2] c2A3GG2- | 
[V:3] E4D4 | 
[V:4] C,4B,,2B,,2 | 
[V:1] c4B2B2 | 
[V:2] G2^F2G4 | 
[V:3] z4z2d2 | 
[V:4] A,,4G,,4 | 
[V:1] AGFED2A2- | 
[V:2] z4z2d2 | 
[V:3] c4B2A2 | 
[V:4] z2F,2G,2F,2 | 
[V:1] AGG4^F2 | 
[V:2] e4d4 | 
[V:3] B2c2A4 | 
[V:4] E,2C,2D,4 | 
[V:1] G4z4 | 
[V:2] d2B4B2 | 
[V:3] G4d3d | 
[V:4] G,,8 | 
[V:1] d3dB4 | 
[V:2] G4z4 | 
[V:3] B4z2B2 | 
[V:4] z4G,3G, | 
[V:1] z2B2B2B2 | 
[V:2] g3ge4 | 
[V:3] B2B2G2G2 | 
[V:4] E,4z2E,2 | 
[V:1] G2G2c4 | 
[V:2] z2e2e2e2 | 
[V:3] c8 | 
[V:4] E,2E,2C,2C,2 | 
[V:1] z2A2c2c2 | 
[V:2] c2c2f4 | 
[V:3] z8 | 
[V:4] F,8 | 
[V:1] B2B2A4 | 
[V:2] z2d2f2f2 | 
[V:3] z4z2A2 | 
[V:4] z4D,4 | 
[V:1] z8 | 
[V:2] e2e2d4 | 
[V:3] c2c2B4 | 
[V:4] C,2C,2G,4 | 
[V:1] A4G3A | 
[V:2] z2f2g4 | 
[V:3] A2d4c2 | 
[V:4] F,2D,2E,4 | 
[V:1] Bcd4^c2 | 
[V:2] f2d2e4 | 
[V:3] d2B2A4 | 
[V:4] D,4z4 | 
[V:1] d4c3B | 
[V:2] d4z2e2- | 
[V:3] z2A2c2c2 | 
[V:4] D,4A,,B,,C,D, | 
[V:1] G3ABcB2- | 
[V:2] e2d4B2 | 
[V:3] B3cd2d2 | 
[V:4] E,F,G,3F,G,2 | 
[V:1] BAA4^G2 | 
[V:2] c2d2e4 | 
[V:3] c2A2B4 | 
[V:4] A,2F,2E,4 | 
[V:1] A8- | 
[V:2] c4z4 | 
[V:3] A8 | 
[V:4] A,,4z4 | 
[V:1] A8 | 
[V:2] f6f2 | 
[V:3] z4A4- | 
[V:4] D,6D,2 | 
[V:1] z8 | 
[V:2] f2e2f2d2 | 
[V:3] A2A2A2G2 | 
[V:4] D,2C,2D,2B,,2 | 
[V:1] A6A2 | 
[V:2] c4z2c2 | 
[V:3] A2F2E4 | 
[V:4] A,,8 | 
[V:1] A2G2A2F2 | 
[V:2] d2e2f2d2 | 
[V:3] z8 | 
[V:4] z8 | 
[V:1] E4z2G2 | 
[V:2] c8 | 
[V:3] z8 | 
[V:4] z2C,2C,2C,2 | 
[V:1] G2G2G2G2 | 
[V:2] z4z2d2 | 
[V:3] z2G2G2G2 | 
[V:4] C,2C,2G,,4- | 
[V:1] D4z4 | 
[V:2] d2d2d2d2 | 
[V:3] G2G2D4 | 
[V:4] G,,4z2D,2 | 
[V:1] z2A2A2A2 | 
[V:2] A8 | 
[V:3] z4z2A2 | 
[V:4] D,2D,2D,2D,2 | 
[V:1] A2A2E4 | 
[V:2] z2c2c2c2 | 
[V:3] A2A2A2A2 | 
[V:4] A,,4z2C,2 | 
[V:1] z2G3FED | 
[V:2] c2c2G4 | 
[V:3] E4G3F | 
[V:4] C,2C,2C,2G,,2 | 
[V:1] C2D4^C2 | 
[V:2] z2G2A4- | 
[V:3] E2D2E4 | 
[V:4] A,,2B,,2A,,4 | 
[V:1] D2d2d2d2 | 
[V:2] A2B3cd2 | 
[V:3] D4z2d2 | 
[V:4] z2G,,2G,,2G,,2 | 
[V:1] d2d2A4 | 
[V:2] G4z2d2 | 
[V:3] d2d2d2d2 | 
[V:4] G,,2G,,2D,4 | 
[V:1] z2c3BAG | 
[V:2] e4e4 | 
[V:3] A4c3B | 
[V:4] C,2A,,3B,,C,2 | 
[V:1] F2G4^F2 | 
[V:2] d2c2d4 | 
[V:3] A2G2A4 | 
[V:4] D,2E,2D,4 | 
[V:1] G6E2 | 
[V:2] d2B4G2 | 
[V:3] G8 | 
[V:4] G,,8 | 
[V:1] E8 | 
[V:2] G4z4 | 
[V:3] z4G4- | 
[V:4] C,6C,2 | 
[V:1] z8 | 
[V:2] z8 | 
[V:3] G2G2D2G2 | 
[V:4] G,,2C,2B,,4 | 
[V:1] z4G4- | 
[V:2] c6c2 | 
[V:3] F4E4 | 
[V:4] A,,4z4 | 
[V:1] G2G2D2G2 | 
[V:2] G2c2B4 | 
[V:3] z8 | 
[V:4] z8 | 
[V:1] F4E3F | 
[V:2] A8 | 
[V:3] c6c2 | 
[V:4] z4z2A,,2 | 
[V:1] GEA4^G2 | 
[V:2] z8 | 
[V:3] G2c2B4 | 
[V:4] E,2A,,2E,2E,2 | 
[V:1] A4z2E2 | 
[V:2] z2e2f2e2 | 
[V:3] A8- | 
[V:4] A,,8- | 
[V:1] F2E2C3D | 
[V:2] c3de4 | 
[V:3] A8- | 
[V:4] A,,8- | 
[V:1] E4z2E2 | 
[V:2] z2e2f2e2 | 
[V:3] A8- | 
[V:4] A,,8 | 
[V:1] F2E2C3D | 
[V:2] c3de4 | 
[V:3] A8 | 
[V:4] z2A,,2A,,2A,,2 | 
[V:1] E2B2c2B2 | 
[V:2] z8 | 
[V:3] z4z2B2 | 
[V:4] E,2E,2E,4 | 
[V:1] G2G2E4 | 
[V:2] z2B2c2B2 | 
[V:3] c2B2G2G2 | 
[V:4] z2E,2E,2E,2 | 
[V:1] z2B2c2B2 | 
[V:2] G2G2E4 | 
[V:3] E4z2B2 | 
[V:4] E,2E,2E,4 | 
[V:1] G2G2E4 | 
[V:2] z2B2c2B2 | 
[V:3] c2B2G2G2 | 
[V:4] z2E,2E,2E,2 | 
[V:1] z2B4B2 | 
[V:2] G2G2E4 | 
[V:3] E4z2B2- | 
[V:4] E,2E,2E,4 | 
[V:1] G3ABcB2- | 
[V:2] e4e4 | 
[V:3] B2B2G3A | 
[V:4] E,4E,4 | 
[V:1] BAA4^G2 | 
[V:2] e8 | 
[V:3] B2c2B4 | 
[V:4] E,8 | 
[V:1] A8 |]  
[V:2] e8 |]  
[V:3] A8 |]  
[V:4] A,,8 |]  



